X:1
T:O Filii et Filiae, 888 alleluias
T:O Filii et Filiae, 888 alleluias
T:15th Century French Melody
T:Public Domain Courtesy of the Cyber Hymnal™
C:15th Century French Melody
Z:Public Domain
Z:Courtesy of the Cyber Hymnal™
%%score ( 1 2 ) ( 3 4 )
L:1/8
M:6/4
K:Bb
V:1 treble 
V:2 treble 
V:3 bass 
V:4 bass 
V:1
 [DG]2 | [GB]4 [Gc]2 [Gd]4 [GB]2 | [Ac]2 [GB]2 [^FA]2 G4 [DG]2 | B4 [Fc]2 [Fd]4 [GB]2 | %4
 [Ac]2 [GB]2 [^FA]2 G4 | [DG]2 [EG]4 [EA]2 (G2 ^F2) (GA) | (B2 AG) [EA]2 D6 | %7
 [^FA]3 [GB] [Ac]2 [Gd]4 [Ac]2 | [GB]2 A4 G4 |] %9
V:2
 x2 | x12 | x6 G4 x2 | (D2 G2) x8 | x10 | x8 D4 D2 | D4 x8 | x12 | x2 G2 ^F2 x4 |] %9
V:3
 [G,B,]2 | [G,,D]4 [A,,D]2 [B,,D]4 [E,E]2 | [C,E]2 [D,D]2 [D,C]2 [G,B,]4 [G,B,]2 | %3
 z2 D2 [A,C]2 [G,D]2 x4 | [C,E]2 [D,D]2 [D,D]2 [G,B,]4 | %5
 [G,B,]2 [E,B,]4 [C,C]2 (B,2 A,2) [B,,G,]2 | (G,2 B,2) [C,A,]2 [D,^F,]6 | %7
 [CD]3 [B,D] [A,E]2 [B,D]4 [CE]2 | D2 D2 C2 [G,,B,]4 |] %9
V:4
 x2 | x12 | x12 | G,4 B,4 x4 | x10 | x8 D,4 x2 | G,,4 x8 | x12 | D2 D,4 x4 |] %9

